X: 305
T: Delaney's drummers
C: anon.
O: Ireland
B: Francis O'Neill: "The Dance Music of Ireland" (1907) no. 305
R: Double jig
Z: Transcribed by Frank Nordberg - http://www.musicaviva.com
F: http://www.musicaviva.com/abc/tunes/ireland/oneill-1001/oneill-1001-030
5.abc
M: 6/8
L: 1/8
K: Ador
g/f/|eAA fAA|gfg age|dBG GFG|BAG Bcd|eAA FAA|
BAB gfe|def gdB|BAA A2::d|efg a2a|baf gfe|def gfg|agf ged|
[1 efg abc'|baf gfe|def gdB|BAA A2:|[2 bag agf|gfe fdB|def gdB|BAA A2:|
W:
W:
W: From Musica Viva - http://www.musicaviva.com
W: the Internet center for free sheet music downloads.


